img/svg/category-2.svg

<svg xmlns="http://www.w3.org/2000/svg" width="86" height="117" viewBox="0 0 86 117"><g fill="#363636"><path d="M82.82 4.01H3.33C1.57 4.01.142 5.44.142 7.2V53.61c0 1.763 1.427 3.19 3.188 3.19h79.492c1.762 0 3.19-1.428 3.19-3.19V7.2c0-1.762-1.43-3.19-3.19-3.19zM8.393 37.237h-.226c-1.762 0-3.19-1.43-3.19-3.19v-7.282c0-1.76 1.428-3.188 3.19-3.188h.226v13.66zm61.23 15.172h-56.28V8.402h56.28v44.006zM78.4 34.552c-2.29 0-4.146-1.855-4.146-4.147s1.856-4.147 4.146-4.147 4.148 1.855 4.148 4.147-1.857 4.147-4.148 4.147zM31.497 0h23.157v2.758H31.497zM46.608 64.86V61.89h8.046V59.13H31.498v2.758h8.045v35.246c-2.14.938-3.635 3.072-3.635 5.56V117h14.335v-14.307c0-2.486-1.495-4.62-3.636-5.557v-27.99h4.796l5.05 1.213v-6.712l-5.05 1.213h-4.795z"/></g></svg>

<?xml version="1.0" encoding="utf-8"?>
<!-- Generator: Adobe Illustrator 15.0.0, SVG Export Plug-In . SVG Version: 6.00 Build 0)  -->
<!DOCTYPE svg PUBLIC "-//W3C//DTD SVG 1.1//EN" "http://www.w3.org/Graphics/SVG/1.1/DTD/svg11.dtd">
<svg version="1.1" id="Layer_1" xmlns="http://www.w3.org/2000/svg" xmlns:xlink="http://www.w3.org/1999/xlink" x="0px" y="0px"
	 width="86px" height="117px" viewBox="0 0 86 117" enable-background="new 0 0 86 117" xml:space="preserve">
<g>
	<path fill="#363636" d="M82.821,4.011H3.33c-1.761,0-3.188,1.427-3.188,3.188v46.413c0,1.763,1.427,3.189,3.188,3.189h79.492
		c1.762,0,3.189-1.427,3.189-3.189V7.199C86.011,5.438,84.583,4.011,82.821,4.011z M8.392,37.236H8.166
		c-1.762,0-3.189-1.429-3.189-3.189v-7.283c0-1.761,1.427-3.188,3.189-3.188h0.226V37.236z M69.623,52.408H13.341V8.402h56.282
		V52.408z M78.4,34.552c-2.289,0-4.146-1.855-4.146-4.147s1.856-4.147,4.146-4.147c2.291,0,4.148,1.855,4.148,4.147
		S80.691,34.552,78.4,34.552z"/>
	<rect x="31.497" fill="#363636" width="23.157" height="2.758"/>
	<path fill="#363636" d="M46.608,64.861v-2.973h8.046v-2.758H31.498v2.758h8.045v35.246c-2.139,0.938-3.635,3.072-3.635,5.559V117
		h14.335v-14.307c0-2.486-1.495-4.621-3.636-5.557v-27.99h4.796l5.051,1.213v-6.711l-5.051,1.213H46.608z"/>
</g>
<g id="Layer_1_1_">
</g>
</svg>
